report_00007_2020-12-11T15:55:29.892Z/server-response-time/comparison/sorted/10_vs_11.svg

<svg width="640" height="500" xmlns="http://www.w3.org/2000/svg" xmlns:xlink="http://www.w3.org/1999/xlink"><path fill="#fff" d="M0 0h640v500H0z"/><defs><path id="d" stroke-width=".222" stroke="currentColor" d="M-1-1h2v2h-2z"/><path id="b" stroke-width=".222" stroke="currentColor" d="M0-1.33l-1.33 2h2.66z"/><path id="f" stroke-width=".222" stroke="currentColor" d="M0 1.33L1.265.411.782-1.067l-1.564-.009-.483 1.487z"/><use xlink:href="#b" id="c" stroke="currentColor" transform="rotate(180)"/><use xlink:href="#d" id="e" stroke="currentColor" transform="rotate(45)"/><circle id="a" stroke-width=".222" stroke="currentColor" cx="0" cy="0" r="1"/></defs><g fill="none" color="#000" stroke="currentColor"><path stroke="#000" d="M53.9 381.8h9m552.1 0h-9"/><text transform="translate(45.6 385.7)" stroke="none" fill="#000" font-family="Arial" font-size="12" text-anchor="end"><tspan>1.4</tspan></text></g><g fill="none" color="#000" stroke="currentColor"><path stroke="#000" d="M53.9 321.5h9m552.1 0h-9"/><text transform="translate(45.6 325.4)" stroke="none" fill="#000" font-family="Arial" font-size="12" text-anchor="end"><tspan>1.6</tspan></text></g><g fill="none" color="#000" stroke="currentColor"><path stroke="#000" d="M53.9 261.2h9m552.1 0h-9"/><text transform="translate(45.6 265.1)" stroke="none" fill="#000" font-family="Arial" font-size="12" text-anchor="end"><tspan>1.8</tspan></text></g><g fill="none" color="#000" stroke="currentColor"><path stroke="#000" d="M53.9 200.9h9m552.1 0h-9"/><text transform="translate(45.6 204.8)" stroke="none" fill="#000" font-family="Arial" font-size="12" text-anchor="end"><tspan>2</tspan></text></g><g fill="none" color="#000" stroke="currentColor"><path stroke="#000" d="M53.9 140.6h9m552.1 0h-9"/><text transform="translate(45.6 144.5)" stroke="none" fill="#000" font-family="Arial" font-size="12" text-anchor="end"><tspan>2.2</tspan></text></g><g fill="none" color="#000" stroke="currentColor"><path stroke="#000" d="M53.9 80.3h9m552.1 0h-9"/><text transform="translate(45.6 84.2)" stroke="none" fill="#000" font-family="Arial" font-size="12" text-anchor="end"><tspan>2.4</tspan></text></g><g fill="none" color="#000" stroke="currentColor"><path stroke="#000" d="M53.9 20h9M615 20h-9"/><text transform="translate(45.6 23.9)" stroke="none" fill="#000" font-family="Arial" font-size="12" text-anchor="end"><tspan>2.6</tspan></text></g><g fill="none" color="#000" stroke="currentColor"><path stroke="#000" d="M53.9 428v-9m0-400.9v9"/><text transform="translate(53.9 449.9)" stroke="none" fill="#000" font-family="Arial" font-size="12" text-anchor="middle"><tspan>0</tspan></text></g><g fill="none" color="#000" stroke="currentColor"><path stroke="#000" d="M110.6 428v-9m0-400.9v9"/><text transform="translate(110.6 449.9)" stroke="none" fill="#000" font-family="Arial" font-size="12" text-anchor="middle"><tspan>10</tspan></text></g><g fill="none" color="#000" stroke="currentColor"><path stroke="#000" d="M167.3 428v-9m0-400.9v9"/><text transform="translate(167.3 449.9)" stroke="none" fill="#000" font-family="Arial" font-size="12" text-anchor="middle"><tspan>20</tspan></text></g><g fill="none" color="#000" stroke="currentColor"><path stroke="#000" d="M223.9 428v-9m0-400.9v9"/><text transform="translate(223.9 449.9)" stroke="none" fill="#000" font-family="Arial" font-size="12" text-anchor="middle"><tspan>30</tspan></text></g><g fill="none" color="#000" stroke="currentColor"><path stroke="#000" d="M280.6 428v-9m0-400.9v9"/><text transform="translate(280.6 449.9)" stroke="none" fill="#000" font-family="Arial" font-size="12" text-anchor="middle"><tspan>40</tspan></text></g><g fill="none" color="#000" stroke="currentColor"><path stroke="#000" d="M337.3 428v-9m0-400.9v9"/><text transform="translate(337.3 449.9)" stroke="none" fill="#000" font-family="Arial" font-size="12" text-anchor="middle"><tspan>50</tspan></text></g><g fill="none" color="#000" stroke="currentColor"><path stroke="#000" d="M394 428v-9m0-400.9v9"/><text transform="translate(394 449.9)" stroke="none" fill="#000" font-family="Arial" font-size="12" text-anchor="middle"><tspan>60</tspan></text></g><g fill="none" color="#000" stroke="currentColor"><path stroke="#000" d="M450.6 428v-9m0-400.9v9"/><text transform="translate(450.6 449.9)" stroke="none" fill="#000" font-family="Arial" font-size="12" text-anchor="middle"><tspan>70</tspan></text></g><g fill="none" color="#000" stroke="currentColor"><path stroke="#000" d="M507.3 428v-9m0-400.9v9"/><text transform="translate(507.3 449.9)" stroke="none" fill="#000" font-family="Arial" font-size="12" text-anchor="middle"><tspan>80</tspan></text></g><g fill="none" color="#000" stroke="currentColor"><path stroke="#000" d="M564 428v-9m0-400.9v9"/><text transform="translate(564 449.9)" stroke="none" fill="#000" font-family="Arial" font-size="12" text-anchor="middle"><tspan>90</tspan></text></g><path stroke="#000" d="M53.9 18.1V428H615V18.1H53.9z" fill="none" color="#000"/><text transform="translate(483.5 467.9)" stroke="none" fill="#000" font-family="Arial" font-size="12" text-anchor="end" color="#000"><tspan>pages+cached+noexternal+nojs</tspan></text><path stroke="#9400D3" d="M491.8 464H534M53.9 377.6l5.7-6.9 5.6-13.9 5.7-5.1 5.7-34.4 5.6-9.4 5.7-.3 5.7-1.5 5.6-1.2 5.7-1.5 5.7-1.5 5.6-.9 5.7-1.5 5.7-4.5h5.6l5.7-1.8 5.7-.3 5.7-2.5 5.6-1.2 5.7-.6 5.7-.9 5.6-.6h5.7l5.7-1.8 5.6-2.1 5.7-5.7 5.7-1.2 5.6-.3h5.7l5.7-1.5 5.6-1.8h5.7l5.7-.6 5.6-1.6 5.7-.6 5.7-1.5 5.6-5.1 5.7-.3 5.7-2.7h5.6l5.7-2.1 5.7-1.5 5.6-1.2 5.7-2.1 5.7-.6h5.6l5.7-1.3 5.7-1.2 5.6-2.7 5.7-.6 5.7-1.2 5.7-.3h11.3l5.7-.3 5.6-.6 5.7-1.8 5.7-1.5 5.6-1.2 5.7-1.5 5.7-1.2 5.6-.6 5.7-1.5 5.7-4.9 5.6-.9 5.7-3.6 5.7-.9 5.6-.3 5.7-1.8 5.7-.6 5.6-1.8 5.7-1.2 5.7-.6 5.6-.3h5.7l5.7-.6 5.6-1.5 5.7-1.8 5.7-.6 5.6-1.6 5.7-2.4 5.7-3.6 5.6-3.3 5.7-2.1 5.7-3 5.7-.9 5.6-4.6 5.7-4.2 5.7-.6 5.6-2.7 5.7-1.2 5.7-6.6 5.6-2.1 5.7-7.9 5.7-.9 5.6-13.6 5.7-19.9 5.7-35.2 5.6-1.3 5.7-15.3" fill="none" color="#000"/><text transform="translate(483.5 485.9)" stroke="none" fill="#000" font-family="Arial" font-size="12" text-anchor="end" color="#000"><tspan>pages+cached+noexternal+nofonts+nosvg+noimg</tspan></text><path stroke="#009E73" d="M491.8 482H534M53.9 420.1l5.7-10.2 5.6-4.3 5.7-2.1 5.7-1.2 5.6-.9 5.7-2.7 5.7-1.5 5.6-.3 5.7-.3 5.7-.3 5.6-3.6 5.7-2.1 5.7-1.8 5.6-.3 5.7-1.6 5.7-.6 5.7-1.5 5.6-.6 5.7-4.5 5.7-4.5 5.6-2.7 5.7-3.3 5.7-5.2 5.6-.3 5.7-1.8 5.7-2.4 5.6-4.5 5.7-3 5.7-8.2 5.6-.9 5.7-2.7 5.7-1.2 5.6-4.2h5.7l5.7-3.3 5.6-1.8 5.7-11.5 5.7-.9 5.6-.6 5.7-1.8 5.7-.9 5.6-.9 5.7-2.7 5.7-2.8 5.6-.6 5.7-1.2 5.7-5.1 5.6-4.8 5.7-1.8 5.7-.6 5.7-.9 5.6-.3 5.7-1.9h5.7l5.6-1.8h5.7l5.7-2.7 5.6-1.5 5.7-1.2 5.7-.6h5.6l5.7-.6 5.7-.3 5.6-1.5 5.7-5.4 5.7-5.8h5.6l5.7-2.4 5.7-.6 5.6-2.7 5.7-1.2 5.7-3.3 5.6-4.2 5.7-4 5.7-2.7h5.6l5.7-9 5.7-.6 5.6-2.4 5.7-1.5 5.7-.3 5.6-5.8 5.7-4.5 5.7-3.3 5.7-1.5 5.6-4.5 5.7-1.6 5.7-1.5 5.6-2.4 5.7-8.7 5.7-4.8 5.6-38.9 5.7-5.8 5.7-2.4 5.6-.6 5.7-.6 5.7-8.7 5.6-30.2L615 26" fill="none" color="#000"/><g fill="none" color="#000" stroke="currentColor"><path stroke="#000" d="M53.9 18.1V428H615V18.1H53.9z"/></g></svg>

<?xml version="1.0" encoding="utf-8"  standalone="no"?>
<svg 
 width="640" height="500"
 viewBox="0 0 640 500"
 xmlns="http://www.w3.org/2000/svg"
 xmlns:xlink="http://www.w3.org/1999/xlink"
>

<title>Gnuplot</title>
<desc>Produced by GNUPLOT 5.4 patchlevel 0 </desc>

<g id="gnuplot_canvas">

<rect x="0" y="0" width="640" height="500" fill="#ffffff"/>
<defs>

	<circle id='gpDot' r='0.5' stroke-width='0.5' stroke='currentColor'/>
	<path id='gpPt0' stroke-width='0.222' stroke='currentColor' d='M-1,0 h2 M0,-1 v2'/>
	<path id='gpPt1' stroke-width='0.222' stroke='currentColor' d='M-1,-1 L1,1 M1,-1 L-1,1'/>
	<path id='gpPt2' stroke-width='0.222' stroke='currentColor' d='M-1,0 L1,0 M0,-1 L0,1 M-1,-1 L1,1 M-1,1 L1,-1'/>
	<rect id='gpPt3' stroke-width='0.222' stroke='currentColor' x='-1' y='-1' width='2' height='2'/>
	<rect id='gpPt4' stroke-width='0.222' stroke='currentColor' fill='currentColor' x='-1' y='-1' width='2' height='2'/>
	<circle id='gpPt5' stroke-width='0.222' stroke='currentColor' cx='0' cy='0' r='1'/>
	<use xlink:href='#gpPt5' id='gpPt6' fill='currentColor' stroke='none'/>
	<path id='gpPt7' stroke-width='0.222' stroke='currentColor' d='M0,-1.33 L-1.33,0.67 L1.33,0.67 z'/>
	<use xlink:href='#gpPt7' id='gpPt8' fill='currentColor' stroke='none'/>
	<use xlink:href='#gpPt7' id='gpPt9' stroke='currentColor' transform='rotate(180)'/>
	<use xlink:href='#gpPt9' id='gpPt10' fill='currentColor' stroke='none'/>
	<use xlink:href='#gpPt3' id='gpPt11' stroke='currentColor' transform='rotate(45)'/>
	<use xlink:href='#gpPt11' id='gpPt12' fill='currentColor' stroke='none'/>
	<path id='gpPt13' stroke-width='0.222' stroke='currentColor' d='M0,1.330 L1.265,0.411 L0.782,-1.067 L-0.782,-1.076 L-1.265,0.411 z'/>
	<use xlink:href='#gpPt13' id='gpPt14' fill='currentColor' stroke='none'/>
	<filter id='textbox' filterUnits='objectBoundingBox' x='0' y='0' height='1' width='1'>
	  <feFlood flood-color='#FFFFFF' flood-opacity='1' result='bgnd'/>
	  <feComposite in='SourceGraphic' in2='bgnd' operator='atop'/>
	</filter>
	<filter id='greybox' filterUnits='objectBoundingBox' x='0' y='0' height='1' width='1'>
	  <feFlood flood-color='lightgrey' flood-opacity='1' result='grey'/>
	  <feComposite in='SourceGraphic' in2='grey' operator='atop'/>
	</filter>
</defs>
<g fill="none" color="#FFFFFF" stroke="black" stroke-width="1.00" stroke-linecap="butt" stroke-linejoin="miter">
</g>
<g fill="none" color="black" stroke="currentColor" stroke-width="1.00" stroke-linecap="butt" stroke-linejoin="miter">
	<path stroke='black'  d='M53.9,381.8 L62.9,381.8 M615.0,381.8 L606.0,381.8  '/>	<g transform="translate(45.6,385.7)" stroke="none" fill="black" font-family="Arial" font-size="12.00"  text-anchor="end">
		<text><tspan font-family="Arial" > 1.4</tspan></text>
	</g>
</g>
<g fill="none" color="black" stroke="currentColor" stroke-width="1.00" stroke-linecap="butt" stroke-linejoin="miter">
	<path stroke='black'  d='M53.9,321.5 L62.9,321.5 M615.0,321.5 L606.0,321.5  '/>	<g transform="translate(45.6,325.4)" stroke="none" fill="black" font-family="Arial" font-size="12.00"  text-anchor="end">
		<text><tspan font-family="Arial" > 1.6</tspan></text>
	</g>
</g>
<g fill="none" color="black" stroke="currentColor" stroke-width="1.00" stroke-linecap="butt" stroke-linejoin="miter">
	<path stroke='black'  d='M53.9,261.2 L62.9,261.2 M615.0,261.2 L606.0,261.2  '/>	<g transform="translate(45.6,265.1)" stroke="none" fill="black" font-family="Arial" font-size="12.00"  text-anchor="end">
		<text><tspan font-family="Arial" > 1.8</tspan></text>
	</g>
</g>
<g fill="none" color="black" stroke="currentColor" stroke-width="1.00" stroke-linecap="butt" stroke-linejoin="miter">
	<path stroke='black'  d='M53.9,200.9 L62.9,200.9 M615.0,200.9 L606.0,200.9  '/>	<g transform="translate(45.6,204.8)" stroke="none" fill="black" font-family="Arial" font-size="12.00"  text-anchor="end">
		<text><tspan font-family="Arial" > 2</tspan></text>
	</g>
</g>
<g fill="none" color="black" stroke="currentColor" stroke-width="1.00" stroke-linecap="butt" stroke-linejoin="miter">
	<path stroke='black'  d='M53.9,140.6 L62.9,140.6 M615.0,140.6 L606.0,140.6  '/>	<g transform="translate(45.6,144.5)" stroke="none" fill="black" font-family="Arial" font-size="12.00"  text-anchor="end">
		<text><tspan font-family="Arial" > 2.2</tspan></text>
	</g>
</g>
<g fill="none" color="black" stroke="currentColor" stroke-width="1.00" stroke-linecap="butt" stroke-linejoin="miter">
	<path stroke='black'  d='M53.9,80.3 L62.9,80.3 M615.0,80.3 L606.0,80.3  '/>	<g transform="translate(45.6,84.2)" stroke="none" fill="black" font-family="Arial" font-size="12.00"  text-anchor="end">
		<text><tspan font-family="Arial" > 2.4</tspan></text>
	</g>
</g>
<g fill="none" color="black" stroke="currentColor" stroke-width="1.00" stroke-linecap="butt" stroke-linejoin="miter">
	<path stroke='black'  d='M53.9,20.0 L62.9,20.0 M615.0,20.0 L606.0,20.0  '/>	<g transform="translate(45.6,23.9)" stroke="none" fill="black" font-family="Arial" font-size="12.00"  text-anchor="end">
		<text><tspan font-family="Arial" > 2.6</tspan></text>
	</g>
</g>
<g fill="none" color="black" stroke="currentColor" stroke-width="1.00" stroke-linecap="butt" stroke-linejoin="miter">
	<path stroke='black'  d='M53.9,428.0 L53.9,419.0 M53.9,18.1 L53.9,27.1  '/>	<g transform="translate(53.9,449.9)" stroke="none" fill="black" font-family="Arial" font-size="12.00"  text-anchor="middle">
		<text><tspan font-family="Arial" > 0</tspan></text>
	</g>
</g>
<g fill="none" color="black" stroke="currentColor" stroke-width="1.00" stroke-linecap="butt" stroke-linejoin="miter">
	<path stroke='black'  d='M110.6,428.0 L110.6,419.0 M110.6,18.1 L110.6,27.1  '/>	<g transform="translate(110.6,449.9)" stroke="none" fill="black" font-family="Arial" font-size="12.00"  text-anchor="middle">
		<text><tspan font-family="Arial" > 10</tspan></text>
	</g>
</g>
<g fill="none" color="black" stroke="currentColor" stroke-width="1.00" stroke-linecap="butt" stroke-linejoin="miter">
	<path stroke='black'  d='M167.3,428.0 L167.3,419.0 M167.3,18.1 L167.3,27.1  '/>	<g transform="translate(167.3,449.9)" stroke="none" fill="black" font-family="Arial" font-size="12.00"  text-anchor="middle">
		<text><tspan font-family="Arial" > 20</tspan></text>
	</g>
</g>
<g fill="none" color="black" stroke="currentColor" stroke-width="1.00" stroke-linecap="butt" stroke-linejoin="miter">
	<path stroke='black'  d='M223.9,428.0 L223.9,419.0 M223.9,18.1 L223.9,27.1  '/>	<g transform="translate(223.9,449.9)" stroke="none" fill="black" font-family="Arial" font-size="12.00"  text-anchor="middle">
		<text><tspan font-family="Arial" > 30</tspan></text>
	</g>
</g>
<g fill="none" color="black" stroke="currentColor" stroke-width="1.00" stroke-linecap="butt" stroke-linejoin="miter">
	<path stroke='black'  d='M280.6,428.0 L280.6,419.0 M280.6,18.1 L280.6,27.1  '/>	<g transform="translate(280.6,449.9)" stroke="none" fill="black" font-family="Arial" font-size="12.00"  text-anchor="middle">
		<text><tspan font-family="Arial" > 40</tspan></text>
	</g>
</g>
<g fill="none" color="black" stroke="currentColor" stroke-width="1.00" stroke-linecap="butt" stroke-linejoin="miter">
	<path stroke='black'  d='M337.3,428.0 L337.3,419.0 M337.3,18.1 L337.3,27.1  '/>	<g transform="translate(337.3,449.9)" stroke="none" fill="black" font-family="Arial" font-size="12.00"  text-anchor="middle">
		<text><tspan font-family="Arial" > 50</tspan></text>
	</g>
</g>
<g fill="none" color="black" stroke="currentColor" stroke-width="1.00" stroke-linecap="butt" stroke-linejoin="miter">
	<path stroke='black'  d='M394.0,428.0 L394.0,419.0 M394.0,18.1 L394.0,27.1  '/>	<g transform="translate(394.0,449.9)" stroke="none" fill="black" font-family="Arial" font-size="12.00"  text-anchor="middle">
		<text><tspan font-family="Arial" > 60</tspan></text>
	</g>
</g>
<g fill="none" color="black" stroke="currentColor" stroke-width="1.00" stroke-linecap="butt" stroke-linejoin="miter">
	<path stroke='black'  d='M450.6,428.0 L450.6,419.0 M450.6,18.1 L450.6,27.1  '/>	<g transform="translate(450.6,449.9)" stroke="none" fill="black" font-family="Arial" font-size="12.00"  text-anchor="middle">
		<text><tspan font-family="Arial" > 70</tspan></text>
	</g>
</g>
<g fill="none" color="black" stroke="currentColor" stroke-width="1.00" stroke-linecap="butt" stroke-linejoin="miter">
	<path stroke='black'  d='M507.3,428.0 L507.3,419.0 M507.3,18.1 L507.3,27.1  '/>	<g transform="translate(507.3,449.9)" stroke="none" fill="black" font-family="Arial" font-size="12.00"  text-anchor="middle">
		<text><tspan font-family="Arial" > 80</tspan></text>
	</g>
</g>
<g fill="none" color="black" stroke="currentColor" stroke-width="1.00" stroke-linecap="butt" stroke-linejoin="miter">
	<path stroke='black'  d='M564.0,428.0 L564.0,419.0 M564.0,18.1 L564.0,27.1  '/>	<g transform="translate(564.0,449.9)" stroke="none" fill="black" font-family="Arial" font-size="12.00"  text-anchor="middle">
		<text><tspan font-family="Arial" > 90</tspan></text>
	</g>
</g>
<g fill="none" color="black" stroke="currentColor" stroke-width="1.00" stroke-linecap="butt" stroke-linejoin="miter">
</g>
<g fill="none" color="black" stroke="currentColor" stroke-width="1.00" stroke-linecap="butt" stroke-linejoin="miter">
	<path stroke='black'  d='M53.9,18.1 L53.9,428.0 L615.0,428.0 L615.0,18.1 L53.9,18.1 Z  '/></g>
<g fill="none" color="black" stroke="currentColor" stroke-width="1.00" stroke-linecap="butt" stroke-linejoin="miter">
</g>
	<g id="gnuplot_plot_1" ><title>pages+cached+noexternal+nojs</title>
<g fill="none" color="black" stroke="currentColor" stroke-width="1.00" stroke-linecap="butt" stroke-linejoin="miter">
	<g transform="translate(483.5,467.9)" stroke="none" fill="black" font-family="Arial" font-size="12.00"  text-anchor="end">
		<text><tspan font-family="Arial" >pages+cached+noexternal+nojs</tspan></text>
	</g>
</g>
<g fill="none" color="black" stroke="currentColor" stroke-width="1.00" stroke-linecap="butt" stroke-linejoin="miter">
	<path stroke='rgb(148,   0, 211)'  d='M491.8,464.0 L534.0,464.0 M53.9,377.6 L59.6,370.7 L65.2,356.8 L70.9,351.7 L76.6,317.3 L82.2,307.9
		L87.9,307.6 L93.6,306.1 L99.2,304.9 L104.9,303.4 L110.6,301.9 L116.2,301.0 L121.9,299.5 L127.6,295.0
		L133.2,295.0 L138.9,293.2 L144.6,292.9 L150.3,290.4 L155.9,289.2 L161.6,288.6 L167.3,287.7 L172.9,287.1
		L178.6,287.1 L184.3,285.3 L189.9,283.2 L195.6,277.5 L201.3,276.3 L206.9,276.0 L212.6,276.0 L218.3,274.5
		L223.9,272.7 L229.6,272.7 L235.3,272.1 L240.9,270.5 L246.6,269.9 L252.3,268.4 L257.9,263.3 L263.6,263.0
		L269.3,260.3 L274.9,260.3 L280.6,258.2 L286.3,256.7 L291.9,255.5 L297.6,253.4 L303.3,252.8 L308.9,252.8
		L314.6,251.5 L320.3,250.3 L325.9,247.6 L331.6,247.0 L337.3,245.8 L343.0,245.5 L348.6,245.5 L354.3,245.5
		L360.0,245.2 L365.6,244.6 L371.3,242.8 L377.0,241.3 L382.6,240.1 L388.3,238.6 L394.0,237.4 L399.6,236.8
		L405.3,235.3 L411.0,230.4 L416.6,229.5 L422.3,225.9 L428.0,225.0 L433.6,224.7 L439.3,222.9 L445.0,222.3
		L450.6,220.5 L456.3,219.3 L462.0,218.7 L467.6,218.4 L473.3,218.4 L479.0,217.8 L484.6,216.3 L490.3,214.5
		L496.0,213.9 L501.6,212.3 L507.3,209.9 L513.0,206.3 L518.6,203.0 L524.3,200.9 L530.0,197.9 L535.7,197.0
		L541.3,192.4 L547.0,188.2 L552.7,187.6 L558.3,184.9 L564.0,183.7 L569.7,177.1 L575.3,175.0 L581.0,167.1
		L586.7,166.2 L592.3,152.6 L598.0,132.7 L603.7,97.5 L609.3,96.2 L615.0,80.9  '/></g>
	</g>
	<g id="gnuplot_plot_2" ><title>pages+cached+noexternal+nofonts+nosvg+noimg</title>
<g fill="none" color="black" stroke="currentColor" stroke-width="1.00" stroke-linecap="butt" stroke-linejoin="miter">
	<g transform="translate(483.5,485.9)" stroke="none" fill="black" font-family="Arial" font-size="12.00"  text-anchor="end">
		<text><tspan font-family="Arial" >pages+cached+noexternal+nofonts+nosvg+noimg</tspan></text>
	</g>
</g>
<g fill="none" color="black" stroke="currentColor" stroke-width="1.00" stroke-linecap="butt" stroke-linejoin="miter">
	<path stroke='rgb(  0, 158, 115)'  d='M491.8,482.0 L534.0,482.0 M53.9,420.1 L59.6,409.9 L65.2,405.6 L70.9,403.5 L76.6,402.3 L82.2,401.4
		L87.9,398.7 L93.6,397.2 L99.2,396.9 L104.9,396.6 L110.6,396.3 L116.2,392.7 L121.9,390.6 L127.6,388.8
		L133.2,388.5 L138.9,386.9 L144.6,386.3 L150.3,384.8 L155.9,384.2 L161.6,379.7 L167.3,375.2 L172.9,372.5
		L178.6,369.2 L184.3,364.0 L189.9,363.7 L195.6,361.9 L201.3,359.5 L206.9,355.0 L212.6,352.0 L218.3,343.8
		L223.9,342.9 L229.6,340.2 L235.3,339.0 L240.9,334.8 L246.6,334.8 L252.3,331.5 L257.9,329.7 L263.6,318.2
		L269.3,317.3 L274.9,316.7 L280.6,314.9 L286.3,314.0 L291.9,313.1 L297.6,310.4 L303.3,307.6 L308.9,307.0
		L314.6,305.8 L320.3,300.7 L325.9,295.9 L331.6,294.1 L337.3,293.5 L343.0,292.6 L348.6,292.3 L354.3,290.4
		L360.0,290.4 L365.6,288.6 L371.3,288.6 L377.0,285.9 L382.6,284.4 L388.3,283.2 L394.0,282.6 L399.6,282.6
		L405.3,282.0 L411.0,281.7 L416.6,280.2 L422.3,274.8 L428.0,269.0 L433.6,269.0 L439.3,266.6 L445.0,266.0
		L450.6,263.3 L456.3,262.1 L462.0,258.8 L467.6,254.6 L473.3,250.6 L479.0,247.9 L484.6,247.9 L490.3,238.9
		L496.0,238.3 L501.6,235.9 L507.3,234.4 L513.0,234.1 L518.6,228.3 L524.3,223.8 L530.0,220.5 L535.7,219.0
		L541.3,214.5 L547.0,212.9 L552.7,211.4 L558.3,209.0 L564.0,200.3 L569.7,195.5 L575.3,156.6 L581.0,150.8
		L586.7,148.4 L592.3,147.8 L598.0,147.2 L603.7,138.5 L609.3,108.3 L615.0,26.0  '/></g>
	</g>
<g fill="none" color="#FFFFFF" stroke="rgb(  0, 158, 115)" stroke-width="2.00" stroke-linecap="butt" stroke-linejoin="miter">
</g>
<g fill="none" color="black" stroke="currentColor" stroke-width="2.00" stroke-linecap="butt" stroke-linejoin="miter">
</g>
<g fill="none" color="black" stroke="black" stroke-width="1.00" stroke-linecap="butt" stroke-linejoin="miter">
</g>
<g fill="none" color="black" stroke="currentColor" stroke-width="1.00" stroke-linecap="butt" stroke-linejoin="miter">
	<path stroke='black'  d='M53.9,18.1 L53.9,428.0 L615.0,428.0 L615.0,18.1 L53.9,18.1 Z  '/></g>
<g fill="none" color="black" stroke="currentColor" stroke-width="1.00" stroke-linecap="butt" stroke-linejoin="miter">
</g>
</g>
</svg>
